status/scalable/battery-100-charging.svg

<?xml version="1.0" encoding="UTF-8" standalone="no"?>
<svg
   xmlns:dc="http://purl.org/dc/elements/1.1/"
   xmlns:cc="http://creativecommons.org/ns#"
   xmlns:rdf="http://www.w3.org/1999/02/22-rdf-syntax-ns#"
   xmlns:svg="http://www.w3.org/2000/svg"
   xmlns="http://www.w3.org/2000/svg"
   xmlns:sodipodi="http://sodipodi.sourceforge.net/DTD/sodipodi-0.dtd"
   xmlns:inkscape="http://www.inkscape.org/namespaces/inkscape"
   width="22"
   viewBox="0 0 22 22"
   height="22"
   id="svg2"
   version="1.1"
   inkscape:version="0.48.5 r10040"
   sodipodi:docname="battery-100-charging.svg">
  <metadata
     id="metadata12">
    <rdf:RDF>
      <cc:Work
         rdf:about="">
        <dc:format>image/svg+xml</dc:format>
        <dc:type
           rdf:resource="http://purl.org/dc/dcmitype/StillImage" />
        <dc:title />
      </cc:Work>
    </rdf:RDF>
  </metadata>
  <defs
     id="defs10" />
  <sodipodi:namedview
     pagecolor="#ffffff"
     bordercolor="#666666"
     borderopacity="1"
     objecttolerance="10"
     gridtolerance="10"
     guidetolerance="10"
     inkscape:pageopacity="0"
     inkscape:pageshadow="2"
     inkscape:window-width="1366"
     inkscape:window-height="716"
     id="namedview8"
     showgrid="true"
     inkscape:showpageshadow="false"
     borderlayer="true"
     inkscape:zoom="7.5853273"
     inkscape:cx="-26.965432"
     inkscape:cy="7.3668555"
     inkscape:window-x="0"
     inkscape:window-y="24"
     inkscape:window-maximized="1"
     inkscape:current-layer="svg2">
    <inkscape:grid
       type="xygrid"
       id="grid4141" />
    <sodipodi:guide
       position="0,22"
       orientation="22,0"
       id="guide4147" />
    <sodipodi:guide
       position="0,0"
       orientation="0,22"
       id="guide4149" />
    <sodipodi:guide
       position="22,0"
       orientation="-22,0"
       id="guide4151" />
    <sodipodi:guide
       position="22,22"
       orientation="0,-22"
       id="guide4153" />
    <sodipodi:guide
       position="3,19"
       orientation="16,0"
       id="guide4155" />
    <sodipodi:guide
       position="3,3"
       orientation="0,16"
       id="guide4157" />
    <sodipodi:guide
       position="19,3"
       orientation="-16,0"
       id="guide4159" />
    <sodipodi:guide
       position="19,19"
       orientation="0,-16"
       id="guide4161" />
  </sodipodi:namedview>
  <g
     id="g3074"
     transform="matrix(0,-1,1.2499988,0,-2.7499868,22)"
     style="fill:#999">
    <path
       sodipodi:nodetypes="cccccccccccccccccccccccccc"
       inkscape:connector-curvature="0"
       style="fill:#999;fill-opacity:1;stroke:none"
       d="m 3,6.999996 0,8.000008 1,0 13,0 0,-0.999999 0,-1 1,0 1,0 0,-4.000009 -1,0 -1,0 0,-1 0,-1 -1,0 -12,0 z m 1,1 12,0 0,6.000009 -12,0 z m 13,2 1,0 0,2.000009 -1,0 z"
       id="rect4236" />
    <path
       id="rect4164"
       d="m 5,9 0,4 5,0 0,-1.333984 -2,0 L 9.4550781,9 5,9 z m 5,0 0,1.333984 2,0 L 10.544922,13 15,13 15,9 10,9 z"
       style="text-decoration:none;color:black;fill:#999;fill-opacity:1;fill-rule:nonzero;stroke:none;visibility:visible;display:inline;overflow:visible;enable-background:accumulate"
       inkscape:connector-curvature="0" />
    <path
       id="path4397"
       d="M 10,8 9.4550781,9 10,9 10,8 z m 0,5 0,1 0.544922,-1 L 10,13 z"
       style="fill:#999;fill-opacity:1;fill-rule:evenodd;stroke:none"
       inkscape:connector-curvature="0" />
  </g>
</svg>

<?xml version="1.0" encoding="UTF-8" standalone="no"?>
<svg
   xmlns:dc="http://purl.org/dc/elements/1.1/"
   xmlns:cc="http://creativecommons.org/ns#"
   xmlns:rdf="http://www.w3.org/1999/02/22-rdf-syntax-ns#"
   xmlns:svg="http://www.w3.org/2000/svg"
   xmlns="http://www.w3.org/2000/svg"
   xmlns:sodipodi="http://sodipodi.sourceforge.net/DTD/sodipodi-0.dtd"
   xmlns:inkscape="http://www.inkscape.org/namespaces/inkscape"
   width="22"
   viewBox="0 0 22 22"
   height="22"
   id="svg2"
   version="1.1"
   inkscape:version="0.48.5 r10040"
   sodipodi:docname="battery-100-charging.svg">
  <metadata
     id="metadata12">
    <rdf:RDF>
      <cc:Work
         rdf:about="">
        <dc:format>image/svg+xml</dc:format>
        <dc:type
           rdf:resource="http://purl.org/dc/dcmitype/StillImage" />
        <dc:title />
      </cc:Work>
    </rdf:RDF>
  </metadata>
  <defs
     id="defs10" />
  <sodipodi:namedview
     pagecolor="#ffffff"
     bordercolor="#666666"
     borderopacity="1"
     objecttolerance="10"
     gridtolerance="10"
     guidetolerance="10"
     inkscape:pageopacity="0"
     inkscape:pageshadow="2"
     inkscape:window-width="1366"
     inkscape:window-height="716"
     id="namedview8"
     showgrid="true"
     inkscape:showpageshadow="false"
     borderlayer="true"
     inkscape:zoom="42.909091"
     inkscape:cx="11.57423"
     inkscape:cy="11.396885"
     inkscape:window-x="0"
     inkscape:window-y="24"
     inkscape:window-maximized="1"
     inkscape:current-layer="svg2">
    <inkscape:grid
       type="xygrid"
       id="grid4141" />
    <sodipodi:guide
       position="0,22"
       orientation="22,0"
       id="guide4147" />
    <sodipodi:guide
       position="0,0"
       orientation="0,22"
       id="guide4149" />
    <sodipodi:guide
       position="22,0"
       orientation="-22,0"
       id="guide4151" />
    <sodipodi:guide
       position="22,22"
       orientation="0,-22"
       id="guide4153" />
    <sodipodi:guide
       position="3,19"
       orientation="16,0"
       id="guide4155" />
    <sodipodi:guide
       position="3,3"
       orientation="0,16"
       id="guide4157" />
    <sodipodi:guide
       position="19,3"
       orientation="-16,0"
       id="guide4159" />
    <sodipodi:guide
       position="19,19"
       orientation="0,-16"
       id="guide4161" />
  </sodipodi:namedview>
  <path
     id="rect4236"
     d="m 3,6.999996 0,8.000008 1,0 13,0 0,-0.999999 0,-1 1,0 1,0 0,-4.000009 -1,0 -1,0 0,-1 0,-1 -1,0 -12,0 z m 1,1 12,0 0,6.000009 -12,0 z m 13,2 1,0 0,2.000009 -1,0 z"
     style="opacity:1;fill:#ffffff;fill-opacity:1;stroke:none;stroke-width:0.10000000000000001;stroke-miterlimit:4;stroke-dasharray:none;stroke-opacity:1"
     inkscape:connector-curvature="0"
     sodipodi:nodetypes="cccccccccccccccccccccccccc" />
  <path
     style="color:#000000;text-decoration:none;text-decoration-line:none;text-decoration-style:solid;text-decoration-color:#000000;clip-rule:nonzero;display:inline;overflow:visible;visibility:visible;opacity:1;isolation:auto;mix-blend-mode:normal;color-interpolation:sRGB;color-interpolation-filters:linearRGB;solid-color:#000000;solid-opacity:1;fill:#ffffff;fill-opacity:1;fill-rule:nonzero;stroke:none;stroke-width:1;stroke-linecap:butt;stroke-linejoin:miter;stroke-miterlimit:4;stroke-dasharray:none;stroke-dashoffset:0;stroke-opacity:1;color-rendering:auto;image-rendering:auto;shape-rendering:auto;text-rendering:auto;enable-background:accumulate"
     d="M 5 9 L 5 13 L 10 13 L 10 11.666016 L 8 11.666016 L 9.4550781 9 L 5 9 z M 10 9 L 10 10.333984 L 12 10.333984 L 10.544922 13 L 15 13 L 15 9 L 10 9 z "
     id="rect4164" />
  <path
     style="fill:#ffffff;fill-opacity:1;fill-rule:evenodd;stroke:none;stroke-width:1px;stroke-linecap:butt;stroke-linejoin:miter;stroke-opacity:1"
     d="M 10 8 L 9.4550781 9 L 10 9 L 10 8 z M 10 13 L 10 14 L 10.544922 13 L 10 13 z "
     id="path4397" />
</svg>
